X: 416
T:Il n'est plaisir
N: Derived from Jos3017-Il_nest_plaisir.krn
C: Josquin des Prez
%%abc-version 2.0
%%abcx-abcm2ps-target-version 5.9.1 (29 Sep 2008)
%%abc-creator hum2abc beta
%%abcx-conversion-date 2019/02/12 16:15:55
%%abc-edited-by Jesse Rodin
%%abc-edited-by Chris Gage 06-07-2012
%%abcx-initial-encoding-date 2012/06/07/
%%humdrum-veritas 876453999
%%humdrum-veritas-data 2528845417
%%linebreak <none>
%%barnumbers 0
L: 1/4
M: 2/1
Q: 1/2=120
V: 1 clef=treble
V: 2 clef=treble-8
V: 3 clef=bass
K: F
[V:1] z8 | 
[V:2] z8 | 
[V:3] G,4G,2G,2 | 
[V:1] z8 | 
[V:2] d4d2d2 | 
[V:3] G,4z2G,2 | 
[V:1] z8 | 
[V:2] d4z2d2 | 
[V:3] F,3E,D,4 | 
[V:1] z8 | 
[V:2] c3BA4 | 
[V:3] z2E,2F,3E, | 
[V:1] z8 | 
[V:2] z2A2B3A | 
[V:3] D,2C,2B,,4 | 
[V:1] z8 | 
[V:2] G3FG2A2- | 
[V:3] C,2_E,3D,C,B,, | 
[V:1] z8 | 
[V:2] AGG4^F2 | 
[V:3] C,2G,,2A,,4 | 
[V:1] d4d2d2 | 
[V:2] G4z2g2 | 
[V:3] G,,2G,4F,E, | 
[V:1] d4z2d2 | 
[V:2] f3ed4 | 
[V:3] D,4z2B,2 | 
[V:1] c3BA4 | 
[V:2] z2e2f3e | 
[V:3] A,4D,4 | 
[V:1] z2A2B3A | 
[V:2] d2c2B4 | 
[V:3] z2A,2G,4 | 
[V:1] G3FG2A2- | 
[V:2] c2_e3dcB | 
[V:3] C,4z2F,2- | 
[V:1] AGG4^F2 | 
[V:2] c2G2A4 | 
[V:3] F,2E,2D,4 | 
[V:1] G4z4 | 
[V:2] G4z2c2 | 
[V:3] G,,2G,2A,4 | 
[V:1] z8 | 
[V:2] dcdBc2e2- | 
[V:3] z2D,2E,2C,2 | 
[V:1] z8 | 
[V:2] edd4c2 | 
[V:3] D,2F,2E,4 | 
[V:1] z4z2c2 | 
[V:2] defga4 | 
[V:3] D,3E,F,2A,2 | 
[V:1] dcdBc2e2- | 
[V:2] z2d2e2c2 | 
[V:3] G,2B,2A,4 | 
[V:1] edd4^c2 | 
[V:2] d2f2e4 | 
[V:3] z2F,2G,2A,2 | 
[V:1] d8- | 
[V:2] d4z4 | 
[V:3] B,2G,3F,G,2 | 
[V:1] d8 | 
[V:2] d4d2d2 | 
[V:3] D,2G,F,G,F,G,2 | 
[V:1] z8 | 
[V:2] d4z2d2 | 
[V:3] D,2F,4_E,D, | 
[V:1] z8 | 
[V:2] c2B2B2A2 | 
[V:3] _E,D,C,B,,C,4 | 
[V:1] d4d2d2 | 
[V:2] B3cdef2- | 
[V:3] B,,8- | 
[V:1] d4z2d2 | 
[V:2] f2edf2B2 | 
[V:3] B,,8 | 
[V:1] c2B2B2A2 | 
[V:2] _e2d2c4 | 
[V:3] z4z2F,2 | 
[V:1] B4z4 | 
[V:2] z2B2c2c2 | 
[V:3] G,2G,2A,2A,2 | 
[V:1] z8 | 
[V:2] d2d2G2G2 | 
[V:3] D,2G,3F,E,D, | 
[V:1] z8 | 
[V:2] c3BA3G | 
[V:3] C,4z2F,2- | 
[V:1] z8 | 
[V:2] F4z2f2 | 
[V:3] F,E,D,C,B,,2B,2- | 
[V:1] z2B2c2c2 | 
[V:2] g2g2a2a2 | 
[V:3] B,2A,G,F,4 | 
[V:1] d2d2G4 | 
[V:2] d2f2e2g2- | 
[V:3] z2B,,2C,3D, | 
[V:1] z2G2c3B | 
[V:2] gfedc4 | 
[V:3] E,2C,4F,2- | 
[V:1] A3GF4 | 
[V:2] z2f3edc | 
[V:3] F,G,A,2D,2F,2 | 
[V:1] z8 | 
[V:2] B2d2cBAG | 
[V:3] G,2B,2A,G,F,E, | 
[V:1] z8 | 
[V:2] B2A2A2G2 | 
[V:3] D,2C,B,,A,,G,,B,,2 | 
[V:1] z4z2d2 | 
[V:2] G2^F2G2B2 | 
[V:3] A,,4G,,4 | 
[V:1] cBAGB2A2 | 
[V:2] A2d2z2d2 | 
[V:3] z4D,4 | 
[V:1] A2G2G2^F2 | 
[V:2] cBAGA2d2 | 
[V:3] _E,4D,4 | 
[V:1] G4z4 | 
[V:2] cBAGB2A2 | 
[V:3] _E,4z2D,2 | 
[V:1] z2d2cBAG | 
[V:2] A2G2G2F2 | 
[V:3] C,B,,A,,G,,A,,4 | 
[V:1] B2A2A2G2 | 
[V:2] G2A2B2c2 | 
[V:3] G,,2D,2G,2C,2 | 
[V:1] G2^F2G4 |]  
[V:2] A4G4 |]  
[V:3] D,4G,,4 |]  



